dist/img/reviews-inst.svg

<svg width="21" height="21" viewBox="0 0 21 21" fill="none" xmlns="http://www.w3.org/2000/svg">
<path d="M15.2046 0H5.79512C2.59969 0 0 2.59982 0 5.79524V15.2048C0 18.4003 2.59969 21 5.79512 21H15.2046C18.4003 21 21 18.4002 21 15.2048V5.79524C21.0001 2.59982 18.4003 0 15.2046 0ZM19.1369 15.2048C19.1369 17.3729 17.3729 19.1368 15.2048 19.1368H5.79512C3.62707 19.1369 1.86322 17.3729 1.86322 15.2048V5.79524C1.86322 3.6272 3.62707 1.86322 5.79512 1.86322H15.2046C17.3728 1.86322 19.1368 3.6272 19.1368 5.79524V15.2048H19.1369Z" fill="#B64B9F"/>
<path d="M10.4971 5.08936C7.51334 5.08936 5.08594 7.51676 5.08594 10.5005C5.08594 13.4842 7.51334 15.9114 10.4971 15.9114C13.4809 15.9114 15.9083 13.4842 15.9083 10.5005C15.9083 7.51676 13.4809 5.08936 10.4971 5.08936ZM10.4971 14.0481C8.54085 14.0481 6.94916 12.4567 6.94916 10.5004C6.94916 8.54402 8.54072 6.95245 10.4971 6.95245C12.4535 6.95245 14.0451 8.54402 14.0451 10.5004C14.0451 12.4567 12.4534 14.0481 10.4971 14.0481Z" fill="#B64B9F"/>
<path d="M16.1393 3.50928C15.7803 3.50928 15.4277 3.65461 15.1742 3.90925C14.9194 4.16265 14.7729 4.51542 14.7729 4.87564C14.7729 5.23474 14.9195 5.58739 15.1742 5.84203C15.4276 6.09543 15.7803 6.242 16.1393 6.242C16.4995 6.242 16.8511 6.09543 17.1057 5.84203C17.3603 5.58739 17.5057 5.23462 17.5057 4.87564C17.5057 4.51542 17.3603 4.16265 17.1057 3.90925C16.8523 3.65461 16.4995 3.50928 16.1393 3.50928Z" fill="#B64B9F"/>
</svg>

<svg width="21" height="21" fill="none" xmlns="http://www.w3.org/2000/svg"><path d="M15.205 0h-9.41A5.802 5.802 0 000 5.795v9.41C0 18.4 2.6 21 5.795 21h9.41C18.4 21 21 18.4 21 15.205v-9.41C21 2.6 18.4 0 15.205 0zm3.932 15.205a3.937 3.937 0 01-3.932 3.932h-9.41a3.936 3.936 0 01-3.932-3.932v-9.41a3.936 3.936 0 013.932-3.932h9.41a3.937 3.937 0 013.932 3.932v9.41z" fill="#B64B9F"/><path d="M10.497 5.09a5.417 5.417 0 00-5.411 5.41 5.417 5.417 0 005.411 5.411 5.417 5.417 0 005.411-5.41 5.417 5.417 0 00-5.41-5.412zm0 8.958A3.552 3.552 0 016.95 10.5a3.552 3.552 0 013.548-3.548 3.552 3.552 0 013.548 3.548 3.552 3.552 0 01-3.548 3.548zM16.14 3.51a1.372 1.372 0 00-1.367 1.366c0 .359.146.711.401.966.254.253.606.4.965.4.36 0 .712-.147.967-.4.254-.255.4-.607.4-.966 0-.36-.146-.713-.4-.967a1.372 1.372 0 00-.967-.4z" fill="#B64B9F"/></svg>
